icons/TrainWagons_filled.svg

<svg width="24" height="24" viewBox="0 0 24 24" fill="none" xmlns="http://www.w3.org/2000/svg">
<path fill-rule="evenodd" clip-rule="evenodd" d="M19.25,2.75c0,-0.41421 0.3358,-0.75 0.75,-0.75h2c0.4142,0 0.75,0.33579 0.75,0.75c0,0.41421 -0.3358,0.75 -0.75,0.75h-1.25v0.75h0.6786c0.7298,0 1.3214,0.59162 1.3214,1.32143v8.60717c0,0.7298 -0.5916,1.3214 -1.3214,1.3214h-0.6923c0.009,0.0821 0.0137,0.1655 0.0137,0.25c0,1.2426 -1.0074,2.25 -2.25,2.25c-1.2426,0 -2.25,-1.0074 -2.25,-2.25c0,-0.0845 0.0047,-0.1679 0.0137,-0.25h-2.2637c-0.4142,0 -0.75,-0.3358 -0.75,-0.75c0,-0.4142 0.3358,-0.75 0.75,-0.75h1.0507c-1.1076,-1.0273 -1.8007,-2.4952 -1.8007,-4.125c0,-3.1066 2.5184,-5.625 5.625,-5.625h0.375zM5.75,18h12.75h3.5c0.4142,0 0.75,0.3358 0.75,0.75c0,0.4142 -0.3358,0.75 -0.75,0.75h-20c-0.41421,0 -0.75,-0.3358 -0.75,-0.75c0,-0.4142 0.33579,-0.75 0.75,-0.75zM5.75,18c-1.24264,0 -2.25,-1.0074 -2.25,-2.25c0,-0.0845 0.00466,-0.1679 0.01373,-0.25h-1.76373c-0.41421,0 -0.75,-0.3358 -0.75,-0.75v-9.75c0,-0.41421 0.33579,-0.75 0.75,-0.75h7.5c0.41421,0 0.75,0.33579 0.75,0.75v9h0.25c0.4142,0 0.75,0.3358 0.75,0.75c0,0.4142 -0.3358,0.75 -0.75,0.75h-0.75c-0.04259,0 -0.08435,-0.0036 -0.125,-0.0104c-0.04065,0.0068 -0.08241,0.0104 -0.125,0.0104h-1.26373c0.00907,0.0821 0.01373,0.1655 0.01373,0.25c0,1.2426 -1.00736,2.25 -2.25,2.25zM17.7927,15.5c-0.0277,0.0782 -0.0427,0.1623 -0.0427,0.25c0,0.4142 0.3358,0.75 0.75,0.75c0.4142,0 0.75,-0.3358 0.75,-0.75c0,-0.0877 -0.015,-0.1718 -0.0427,-0.25h-0.3323zM5.75,16.5c0.41421,0 0.75,-0.3358 0.75,-0.75c0,-0.0877 -0.01504,-0.1718 -0.04268,-0.25h-1.41464c-0.02764,0.0782 -0.04268,0.1623 -0.04268,0.25c0,0.4142 0.33579,0.75 0.75,0.75zM2.75,7.25v5c0,0.4142 0.33579,0.75 0.75,0.75c0.41421,0 0.75,-0.3358 0.75,-0.75v-5c0,-0.41421 -0.33579,-0.75 -0.75,-0.75c-0.41421,0 -0.75,0.33579 -0.75,0.75zM7.25,7.25c0,-0.41421 -0.33579,-0.75 -0.75,-0.75c-0.41421,0 -0.75,0.33579 -0.75,0.75v5c0,0.4142 0.33579,0.75 0.75,0.75c0.41421,0 0.75,-0.3358 0.75,-0.75z" fill="#002B51"/>
</svg>

<svg width="24" height="24" viewBox="0 0 24 24" fill="none" xmlns="http://www.w3.org/2000/svg">
<path fill-rule="evenodd" clip-rule="evenodd" d="M19.25 2.75C19.25 2.33579 19.5858 2 20 2H22C22.4142 2 22.75 2.33579 22.75 2.75C22.75 3.16421 22.4142 3.5 22 3.5H20.75V4.25H21.4286C22.1584 4.25 22.75 4.84162 22.75 5.57143V14.1786C22.75 14.9084 22.1584 15.5 21.4286 15.5H20.7363C20.7453 15.5821 20.75 15.6655 20.75 15.75C20.75 16.9926 19.7426 18 18.5 18C17.2574 18 16.25 16.9926 16.25 15.75C16.25 15.6655 16.2547 15.5821 16.2637 15.5H14C13.5858 15.5 13.25 15.1642 13.25 14.75C13.25 14.3358 13.5858 14 14 14H15.0507C13.9431 12.9727 13.25 11.5048 13.25 9.875C13.25 6.7684 15.7684 4.25 18.875 4.25H19.25V2.75ZM5.75 18H18.5H22C22.4142 18 22.75 18.3358 22.75 18.75C22.75 19.1642 22.4142 19.5 22 19.5H2C1.58579 19.5 1.25 19.1642 1.25 18.75C1.25 18.3358 1.58579 18 2 18H5.75ZM5.75 18C4.50736 18 3.5 16.9926 3.5 15.75C3.5 15.6655 3.50466 15.5821 3.51373 15.5H1.75C1.33579 15.5 1 15.1642 1 14.75V5C1 4.58579 1.33579 4.25 1.75 4.25H9.25C9.66421 4.25 10 4.58579 10 5V14H10.25C10.6642 14 11 14.3358 11 14.75C11 15.1642 10.6642 15.5 10.25 15.5H9.5C9.45741 15.5 9.41565 15.4964 9.375 15.4896C9.33435 15.4964 9.29259 15.5 9.25 15.5H7.98627C7.99534 15.5821 8 15.6655 8 15.75C8 16.9926 6.99264 18 5.75 18ZM18.875 15.5H19.2073C19.235 15.5782 19.25 15.6623 19.25 15.75C19.25 16.1642 18.9142 16.5 18.5 16.5C18.0858 16.5 17.75 16.1642 17.75 15.75C17.75 15.6623 17.765 15.5782 17.7927 15.5H18.875ZM5 15.75C5 15.6623 5.01504 15.5782 5.04268 15.5H6.45732C6.48496 15.5782 6.5 15.6623 6.5 15.75C6.5 16.1642 6.16421 16.5 5.75 16.5C5.33579 16.5 5 16.1642 5 15.75ZM3.5 6.5C3.91421 6.5 4.25 6.83579 4.25 7.25V12.25C4.25 12.6642 3.91421 13 3.5 13C3.08579 13 2.75 12.6642 2.75 12.25V7.25C2.75 6.83579 3.08579 6.5 3.5 6.5ZM7.25 7.25C7.25 6.83579 6.91421 6.5 6.5 6.5C6.08579 6.5 5.75 6.83579 5.75 7.25V12.25C5.75 12.6642 6.08579 13 6.5 13C6.91421 13 7.25 12.6642 7.25 12.25V7.25Z" fill="#002B51"/>
</svg>
